img/2gis.svg

<svg width="46" height="18" viewBox="0 0 46 18" fill="none" xmlns="http://www.w3.org/2000/svg">
  <path d="M19.6286 9C19.6286 7.89317 19.4004 6.83718 19.0011 5.85716C18.8947 9.08089 15.3217 11.5777 13.2237 13.23H18.4755C19.2099 11.9679 19.6286 10.5293 19.6286 9ZM15.8319 1.90101C14.1698 0.713288 12.085 -1.98682e-07 9.81371 -1.98682e-07C4.39381 -1.98682e-07 0 4.02939 0 9C0 13.9706 4.39381 18 9.81371 18C12.2966 18 14.557 17.149 16.2843 15.7552H9.17884L9.15767 13.8411C13.4388 10.4282 16.0635 8.12001 16.0635 5.8905C16.0635 5.06189 15.7192 4.01628 14.1709 4.01628C12.9446 4.01628 11.7612 4.6678 11.9757 7.38977H9.48083C8.85625 4.23382 10.7283 1.7272 14.2996 1.7272C14.8521 1.7272 15.3652 1.78841 15.8319 1.90101Z" fill="#AFCA0B"/>
  <path d="M28.732 6.22086H31.0536C31.1326 4.60134 30.5377 2.03569 26.7084 2.03569C23.891 2.03569 21.8462 3.58252 21.8462 6.80297C21.8462 7.23969 21.8662 9.49597 21.8662 10.8974C21.8662 14.3906 24.5058 15.1553 26.7279 15.1553C28.0577 15.1553 29.9818 14.882 30.8752 13.9905V8.42249H26.51V10.4427H28.4546V12.8984C26.9858 13.3532 24.3073 13.5358 24.3073 10.4427V6.80297C24.3073 4.63796 25.3986 3.89133 26.6083 3.89133C27.8592 3.89133 28.732 4.47399 28.732 6.22086ZM45.999 11.6255C46.0991 6.63954 39.8687 8.29514 39.9282 5.51085C39.9476 4.52865 40.6426 3.89133 41.7733 3.89133C42.983 3.89133 43.698 4.54668 43.6774 6.25748H45.9595C46.0196 4.71011 45.6232 2.07177 41.8534 2.07177C39.5118 2.07177 37.5866 3.12776 37.5471 5.47478C37.4476 10.2601 43.7174 8.69578 43.6179 11.5883C43.5784 12.7711 42.6461 13.2985 41.5943 13.2985C40.3646 13.2985 39.3722 12.6437 39.5707 10.6788H37.2686C37.0112 13.2805 38.2615 15.1372 41.5749 15.1372C44.3723 15.1372 45.9595 13.7172 45.999 11.6255ZM35.5178 14.9727H33.1762V2.23574H35.5178V14.9727ZM35.5178 14.9727H33.1762V2.23574H35.5178V14.9727Z" fill="#3C3C3B"/>
</svg>

<svg width="46" height="18" fill="none" xmlns="http://www.w3.org/2000/svg"><path d="M19.629 9A8.3 8.3 0 0 0 19 5.857c-.106 3.224-3.68 5.72-5.777 7.373h5.252A8.372 8.372 0 0 0 19.628 9zm-3.797-7.099C14.17.713 12.085 0 9.814 0 4.394 0 0 4.03 0 9s4.394 9 9.814 9c2.483 0 4.743-.851 6.47-2.245H9.18l-.021-1.914c4.28-3.413 6.906-5.721 6.906-7.95 0-.83-.345-1.875-1.893-1.875-1.226 0-2.41.652-2.195 3.374H9.48c-.625-3.156 1.247-5.663 4.819-5.663.552 0 1.065.061 1.532.174z" fill="#AFCA0B"/><path d="M28.732 6.22h2.322c.079-1.619-.516-4.184-4.346-4.184-2.817 0-4.862 1.547-4.862 4.767 0 .437.02 2.693.02 4.094 0 3.494 2.64 4.258 4.862 4.258 1.33 0 3.254-.273 4.147-1.164V8.422H26.51v2.02h1.945v2.456c-1.47.455-4.148.638-4.148-2.455v-3.64c0-2.165 1.092-2.912 2.301-2.912 1.251 0 2.124.583 2.124 2.33zm17.267 5.406c.1-4.986-6.13-3.33-6.07-6.115.019-.982.714-1.62 1.844-1.62 1.21 0 1.925.656 1.904 2.366h2.282c.06-1.547-.336-4.185-4.106-4.185-2.341 0-4.266 1.056-4.306 3.403-.1 4.785 6.17 3.22 6.07 6.113-.039 1.183-.97 1.71-2.023 1.71-1.23 0-2.222-.654-2.023-2.62h-2.302c-.258 2.602.992 4.46 4.306 4.46 2.797 0 4.384-1.42 4.424-3.512zm-10.481 3.347h-2.342V2.236h2.342v12.737zm0 0h-2.342V2.236h2.342v12.737z" fill="#3C3C3B"/></svg>
